X:16
T:Blue violets - SBG
%%VWML:SBG-1-2-582-0
F:http://www.vwml.org/record/SBG/1/2/582
Z:Original Sibelius transcriptions by M. & S. Graebe
M:4/4
I:linebreak $
K:G
V:1 treble nm="P1"
V:1
 B2 GA B2 de | df ed B2 G2 | A2 Bc ed BG | B2 cB d3 z | B2 cB e2 fe | dB AG c2 B2 |$ d2 ed BG FG | %7
 B2 B3 A G2- | G4 z4 | f2 ed cB Gc | B2 A3 A G2- | G4 z2 x2 | %12
T:Blue violets - published 1838
F:http://www.vwml.org/record/SBG/1/2/582
Z:Original Sibelius transcriptions by M. & S. Graebe
M:4/4
I:linebreak $
K:D
V:1 treble nm="P1"
V:1
 F A dA Bd A2 | FAdA Bd A2 | FAdc edcB | AFdF/F/ E3 A/G/ |$ FAdA B d2 A | FAdA Bd A2 | Afed cdBG | %7
w: ||||||* * * * * * * I|
 FBAF D2"_&c." x2 | %8
w: |

